core/assets/icons/shop.outline.svg

<svg width="24" height="24" viewBox="0 0 24 24" xmlns="http://www.w3.org/2000/svg"><g id="shop=outline"><path id="Vector" d="M6.5 2H17.5C17.6552 2 17.8084 2.03614 17.9472 2.10557C18.0861 2.175 18.2069 2.2758 18.3 2.4L21 6V21C21 21.2652 20.8946 21.5196 20.7071 21.7071C20.5196 21.8946 20.2652 22 20 22H4C3.73478 22 3.48043 21.8946 3.29289 21.7071C3.10536 21.5196 3 21.2652 3 21V6L5.7 2.4C5.79315 2.2758 5.91393 2.175 6.05279 2.10557C6.19164 2.03614 6.34475 2 6.5 2ZM19 8H5V20H19V8ZM18.5 6L17 4H7L5.5 6H18.5ZM9 10V12C9 12.7956 9.31607 13.5587 9.87868 14.1213C10.4413 14.6839 11.2044 15 12 15C12.7956 15 13.5587 14.6839 14.1213 14.1213C14.6839 13.5587 15 12.7956 15 12V10H17V12C17 13.3261 16.4732 14.5979 15.5355 15.5355C14.5979 16.4732 13.3261 17 12 17C10.6739 17 9.40215 16.4732 8.46447 15.5355C7.52678 14.5979 7 13.3261 7 12V10H9Z"/></g></svg>

<svg xmlns="http://www.w3.org/2000/svg" width="24" height="24" fill="none"><path fill="#191C22" d="M6.5 2h11a1 1 0 0 1 .8.4L21 6v15a1 1 0 0 1-1 1H4a1 1 0 0 1-1-1V6l2.7-3.6a1 1 0 0 1 .8-.4ZM19 8H5v12h14V8Zm-.5-2L17 4H7L5.5 6h13ZM9 10v2a3 3 0 0 0 6 0v-2h2v2a5 5 0 1 1-10 0v-2h2Z"/></svg>
